_inc/images/systems/logos/vic20.svg

<svg viewBox="0 0 3840 1178.6" xmlns="http://www.w3.org/2000/svg">
    <path class="st5" d="M1412.1 1170.3h-205.9L987.8 619.9h147.6l160.9 411.8h25.8L1481 619.9h147l-215.9 550.4Zm275.5 0V619.9h141v550.4h-141Zm515.1 8.2c-58.3 0-118.5.8-175.4-14-45.7-12.4-74.8-41.3-84.1-99.9-8.6-53.6-6.6-111.4-6.6-165.9 0-33 0-66 1.3-98.2 1.3-50.3 2-104.8 33.1-141.1 10.6-12.4 23.2-20.6 37.1-26.4 58.3-23.9 183.4-21.5 245-21.5 50.3 0 102-1.7 151.6 9.9 19.9 4.9 37.7 13.2 53.6 28.9 35.1 33.8 35.1 99 35.1 148.5 0 5.8-.7 12.4-.7 18.2h-134.4c-.7-14.9-.7-42.1-9.9-52-6-6.6-16.6-9.1-24.5-9.9-35.8-5.8-73.5-5.8-109.2-5.8-19.2 0-37.7 0-56.9.8-19.9.8-48.3.8-64.9 16.5-23.2 22.3-21.2 99-21.2 131.2 0 29.7-2.6 104.8 19.9 125.4 8.6 7.4 17.9 11.6 28.5 13.2 28.5 5 59.6 4.1 88.7 4.1h68.2c24.5 0 72.2 5 83.4-30.5 4.6-14.9 5.3-36.3 5.3-52h134.4c.7 13.2 1.3 27.2 1.3 40.4 0 47-.7 103.1-31.1 137-41 46.2-158.2 42.9-210.5 42.9h-57.1Zm466.1-8.2c0-21.5-1.3-43.7-1.3-65.2 0-44.6-.7-89.1 5.3-132.9 11.9-91.6 75.5-103.1 139-109.8l166.8-16.5c21.2-2.5 44.4-2.5 64.9-11.6 19.2-8.3 19.2-22.3 19.2-45.4 0-15.7 0-33-11.3-42.9-16.6-15.7-88.1-11.6-107.3-11.6-40.4 0-84.1-2.5-124.5 5.8-30.5 5.8-27.1 33-27.1 66v18.2h-130.4v-22.3c0-45.4.7-108.1 27.8-143.6 30.5-39.6 98-41.3 138.4-43.7 28.5-1.7 56.9-1.7 85.4-1.7h12.6l109.2.8c42.4 0 96.7.8 128.4 41.3 24.5 31.4 24.5 94.1 24.5 134.5 0 41.3-.7 85-19.2 121.3-24.5 48.7-94 55.3-135.1 58.6-31.8 2.5-62.9 5-94.7 7.4-25.2 1.7-50.3 4.1-75.5 6.6-11.3.8-39.7 3.3-50.3 8.3-21.2 9.9-21.2 28.1-21.2 52h403.2v126.3h-526.8Zm1072.6-3.3c-53 10.7-124.5 9.9-178.1 9.9-33.1 0-65.5-.8-98.6-1.7-72.8-1.6-157.6-4.9-173.5-114.7-7.3-51.2-5.3-113.1-5.3-165 0-33 0-65.2.7-98.2.7-46.2 3.3-99 30.5-134.5 17.9-23.1 43-34.7 68.2-39.6 53-10.7 123.8-9.9 178.1-9.9 32.4 0 65.5 1.7 98 2.5 113.2 3.3 178.8 18.2 178.8 181.5v196.4c-.2 91.6-18.7 156.8-98.8 173.3Zm-64.3-400.2c-15.2-8.3-37.7-9.1-54.3-9.1-26.5 0-53-.8-80.1-.8-27.1 0-56.9-.8-83.4 6.6-7.9 2.5-15.9 5.8-21.8 14-17.9 23.1-16.6 88.3-16.6 118 0 27.2-1.3 91.6 13.9 113.9 6.6 9.9 14.6 14 24.5 17.3 28.5 8.3 75.5 8.3 105.3 7.4l58.3-1.7c16.6-.8 39.1-.8 54.3-9.9 33.1-18.2 28.5-90.8 28.5-127.1-.1-36.2 4.5-109.7-28.6-128.6Z" style="fill:#fff"/>
    <path class="st7" style="fill:#fff" d="M0 611.5h869.6v58.4H0zm0 127.2h869.6v58.4H0zm0 127.2h869.6v58.3H0zm0 127.2h869.6v58.3H0zm0 127.1h869.6v58.4H0z"/>
    <path class="st5" d="M3384.2 158.1h-71.3v204.6h74.4V255.8c0-27.9 17.1-41.9 48.1-41.9s38.8 9.3 40.3 35.6h69.8c0-69.7-9.3-96.1-83.7-96.1-45 0-60.5 9.3-77.5 43.4l-.1-38.7Zm342.6 164.3c-71.3 0-82.1-6.2-82.1-41.9H3840c-3.1-99.2-3.1-122.4-134.9-122.4-111.6 0-136.5 20.1-136.5 108.5 0 82.2 32.6 102.3 122.5 103.9 100.8 0 148.8-4.7 148.8-71.3H3767c-3 15.5-9.2 23.2-40.2 23.2Zm-83.7-85.2c3.1-21.7 9.3-29.5 58.9-29.5 54.3 0 62 3.1 65.1 29.5h-124Zm-2771.8 7.7h74.4c-6.2-69.8-26.4-86.8-130.2-86.8-117.8 0-144.2 18.6-144.2 105.4 0 86.8 24.8 107 134.9 107 116.3 0 139.5-15.5 139.5-88.4h-74.4c0 20.2-7.7 29.5-65.1 29.5-49.6 0-60.5-12.4-60.5-52.7 0-38.8 10.8-38.8 69.8-38.8 43.4 0 51.1 4.7 55.8 24.8Zm1728.5 12.4c0-83.7-24.8-100.7-144.2-100.7-128.7 0-144.1 21.7-144.1 108.5s21.7 105.4 144.1 105.4c130.2 0 144.2-21.7 144.2-113.2Zm-212.4 4.7c0-41.9 9.3-46.5 63.6-46.5 60.5 0 71.3 1.5 71.3 46.5 0 41.9-7.8 49.6-65.1 49.6-62.1 0-69.8-6.2-69.8-49.6Zm880.5-4.7c0-83.7-23.3-100.7-142.6-100.7-127.1 0-142.6 20.1-142.6 107 0 88.4 21.7 107 142.6 107 130.2-.1 142.6-21.8 142.6-113.3Zm-210.8 4.7c0-41.9 9.3-46.5 63.5-46.5 60.5 0 71.3 1.5 71.3 46.5 0 41.9-7.7 49.6-65.1 49.6-61.9 0-69.7-6.2-69.7-49.6Zm-1781.2-4.7c0-83.7-23.3-100.7-142.6-100.7-128.7 0-144.2 20.1-144.2 107 0 88.4 21.7 107 144.2 107 130.2-.1 142.6-21.8 142.6-113.3Zm-209.3 4.7c0-41.9 9.3-46.5 62-46.5 60.5 0 71.3 1.5 71.3 46.5 0 41.9-7.8 49.6-65.1 49.6-60.5 0-68.2-6.2-68.2-49.6ZM2858.7 71.3v119.4c-17-23.3-32.5-35.6-94.5-35.6-99.2 0-117.8 26.4-117.8 107 0 82.2 26.4 105.4 122.5 105.4 60.5 0 79.1-15.5 93-41.8v37.2h74.4V71.3h-77.6Zm-54.3 142.6c41.8 0 55.8 6.2 55.8 38.7 0 49.6-3.1 54.3-62 54.3s-74.4-1.6-74.4-43.4c0-48 18.6-49.6 80.6-49.6Zm-1410.7-55.8H1324v204.6h74.4V257.3c0-31 15.5-41.8 57.4-41.8 38.8 0 49.6 13.9 49.6 52.7v94.5h76V254.2c0-29.5 23.2-38.7 58.9-38.7 34.1 0 49.6 9.3 49.6 38.7v108.5h74.4V241.8c0-60.4-37.2-88.4-105.4-88.4-58.9 0-80.6 21.7-88.4 45-15.5-26.4-37.2-45-96.1-45-55.8 0-71.3 18.6-80.6 52.7l-.1-48Zm500.7 0h-69.8v204.6h74.4V257.3c0-31 18.6-41.8 55.8-41.8 38.8 0 49.6 12.4 49.6 52.7v94.5h76V254.2c0-29.5 21.7-38.7 57.4-38.7 34.1 0 51.1 10.8 51.1 38.7v108.5h74.4V241.8c0-60.4-37.2-88.4-105.4-88.4-58.9 0-79.1 20.1-88.4 45-15.5-26.4-37.2-45-96.1-45-54.2 0-68.2 18.6-79 52.7v-48ZM334.6 388.9c-20.4 11.4-43.8 18-68.8 18-77.7 0-141-63.2-141-141s63.2-141 141-141c25 0 48.4 6.5 68.8 18V9c-21.9-5.9-45-9-68.8-9C119 0 0 119 0 265.9c0 146.9 119 265.9 265.9 265.9 23.8 0 46.8-3.2 68.8-9V388.9Z" style="fill:#fff"/>
    <path class="st5" style="fill:#fff" d="M334.6 149.8h111.5v106.4H334.6z"/>
    <path class="st5" style="fill:#fff" d="M566.4 149.8 460 256.2h-49V149.8zM334.6 275.6h111.5V382H334.6z"/>
    <path class="st5" style="fill:#fff" d="M566.4 381.9 460 275.6h-49v106.3z"/>
</svg>

<?xml version="1.0" encoding="utf-8"?>
<svg version="1.1" viewBox="0 0 3840 1178.6" xmlns="http://www.w3.org/2000/svg">
  <path class="st5" d="M 1412.1 1170.3 L 1206.2 1170.3 L 987.8 619.9 L 1135.4 619.9 L 1296.3 1031.7 L 1322.1 1031.7 L 1481 619.9 L 1628 619.9 L 1412.1 1170.3 Z" style="fill: rgb(255, 255, 255);"/>
  <path class="st5" d="M 1687.6 1170.3 L 1687.6 619.9 L 1828.6 619.9 L 1828.6 1170.3 L 1687.6 1170.3 Z" style="fill: rgb(255, 255, 255);"/>
  <path class="st5" d="M 2202.7 1178.5 C 2144.4 1178.5 2084.2 1179.3 2027.3 1164.5 C 1981.6 1152.1 1952.5 1123.2 1943.2 1064.6 C 1934.6 1011 1936.6 953.2 1936.6 898.7 C 1936.6 865.7 1936.6 832.7 1937.9 800.5 C 1939.2 750.2 1939.9 695.7 1971 659.4 C 1981.6 647 1994.2 638.8 2008.1 633 C 2066.4 609.1 2191.5 611.5 2253.1 611.5 C 2303.4 611.5 2355.1 609.8 2404.7 621.4 C 2424.6 626.3 2442.4 634.6 2458.3 650.3 C 2493.4 684.1 2493.4 749.3 2493.4 798.8 C 2493.4 804.6 2492.7 811.2 2492.7 817 L 2358.3 817 C 2357.6 802.1 2357.6 774.9 2348.4 765 C 2342.4 758.4 2331.8 755.9 2323.9 755.1 C 2288.1 749.3 2250.4 749.3 2214.7 749.3 C 2195.5 749.3 2177 749.3 2157.8 750.1 C 2137.9 750.9 2109.5 750.9 2092.9 766.6 C 2069.7 788.9 2071.7 865.6 2071.7 897.8 C 2071.7 927.5 2069.1 1002.6 2091.6 1023.2 C 2100.2 1030.6 2109.5 1034.8 2120.1 1036.4 C 2148.6 1041.4 2179.7 1040.5 2208.8 1040.5 L 2277 1040.5 C 2301.5 1040.5 2349.2 1045.5 2360.4 1010 C 2365 995.1 2365.7 973.7 2365.7 958 L 2500.1 958 C 2500.8 971.2 2501.4 985.2 2501.4 998.4 C 2501.4 1045.4 2500.7 1101.5 2470.3 1135.4 C 2429.3 1181.6 2312.1 1178.3 2259.8 1178.3 L 2202.7 1178.3 Z" style="fill: rgb(255, 255, 255);"/>
  <path class="st5" d="M 2668.8 1170.3 C 2668.8 1148.8 2667.5 1126.6 2667.5 1105.1 C 2667.5 1060.5 2666.8 1016 2672.8 972.2 C 2684.7 880.6 2748.3 869.1 2811.8 862.4 L 2978.6 845.9 C 2999.8 843.4 3023 843.4 3043.5 834.3 C 3062.7 826 3062.7 812 3062.7 788.9 C 3062.7 773.2 3062.7 755.9 3051.4 746 C 3034.8 730.3 2963.3 734.4 2944.1 734.4 C 2903.7 734.4 2860 731.9 2819.6 740.2 C 2789.1 746 2792.5 773.2 2792.5 806.2 L 2792.5 824.4 L 2662.1 824.4 L 2662.1 802.1 C 2662.1 756.7 2662.8 694 2689.9 658.5 C 2720.4 618.9 2787.9 617.2 2828.3 614.8 C 2856.8 613.1 2885.2 613.1 2913.7 613.1 L 2926.3 613.1 L 3035.5 613.9 C 3077.9 613.9 3132.2 614.7 3163.9 655.2 C 3188.4 686.6 3188.4 749.3 3188.4 789.7 C 3188.4 831 3187.7 874.7 3169.2 911 C 3144.7 959.7 3075.2 966.3 3034.1 969.6 C 3002.3 972.1 2971.2 974.6 2939.4 977 C 2914.2 978.7 2889.1 981.1 2863.9 983.6 C 2852.6 984.4 2824.2 986.9 2813.6 991.9 C 2792.4 1001.8 2792.4 1020 2792.4 1043.9 L 3195.6 1043.9 L 3195.6 1170.2 L 2668.8 1170.2 Z" style="fill: rgb(255, 255, 255);"/>
  <path class="st5" d="M 3741.4 1167 C 3688.4 1177.7 3616.9 1176.9 3563.3 1176.9 C 3530.2 1176.9 3497.8 1176.1 3464.7 1175.2 C 3391.9 1173.6 3307.1 1170.3 3291.2 1060.5 C 3283.9 1009.3 3285.9 947.4 3285.9 895.5 C 3285.9 862.5 3285.9 830.3 3286.6 797.3 C 3287.3 751.1 3289.9 698.3 3317.1 662.8 C 3335 639.7 3360.1 628.1 3385.3 623.2 C 3438.3 612.5 3509.1 613.3 3563.4 613.3 C 3595.8 613.3 3628.9 615 3661.4 615.8 C 3774.6 619.1 3840.2 634 3840.2 797.3 L 3840.2 993.7 C 3840 1085.3 3821.5 1150.5 3741.4 1167 Z M 3677.1 766.8 C 3661.9 758.5 3639.4 757.7 3622.8 757.7 C 3596.3 757.7 3569.8 756.9 3542.7 756.9 C 3515.6 756.9 3485.8 756.1 3459.3 763.5 C 3451.4 766 3443.4 769.3 3437.5 777.5 C 3419.6 800.6 3420.9 865.8 3420.9 895.5 C 3420.9 922.7 3419.6 987.1 3434.8 1009.4 C 3441.4 1019.3 3449.4 1023.4 3459.3 1026.7 C 3487.8 1035 3534.8 1035 3564.6 1034.1 L 3622.9 1032.4 C 3639.5 1031.6 3662 1031.6 3677.2 1022.5 C 3710.3 1004.3 3705.7 931.7 3705.7 895.4 C 3705.6 859.2 3710.2 785.7 3677.1 766.8 Z" style="fill: rgb(255, 255, 255);"/>
  <polygon id="polygon7_7_" class="st7" points="0 611.5 0 611.5 869.6 611.5 869.6 669.9 0 669.9" style="fill: rgb(255, 255, 255);"/>
  <polygon class="st7" points="0 738.7 0 738.7 869.6 738.7 869.6 797.1 0 797.1" style="fill: rgb(255, 255, 255);"/>
  <polygon class="st7" points="0 865.9 0 865.9 869.6 865.9 869.6 924.2 0 924.2" style="fill: rgb(255, 255, 255);"/>
  <polygon class="st7" points="0 993.1 0 993.1 869.6 993.1 869.6 1051.4 0 1051.4" style="fill: rgb(255, 255, 255);"/>
  <polygon id="polygon15_7_" class="st7" points="0 1120.2 0 1120.2 869.6 1120.2 869.6 1178.6 0 1178.6" style="fill: rgb(255, 255, 255);"/>
  <path id="path4595_10_" class="st5" d="M 3384.2 158.1 L 3312.9 158.1 L 3312.9 362.7 L 3387.3 362.7 L 3387.3 255.8 C 3387.3 227.9 3404.4 213.9 3435.4 213.9 C 3466.4 213.9 3474.2 223.2 3475.7 249.5 L 3545.5 249.5 C 3545.5 179.8 3536.2 153.4 3461.8 153.4 C 3416.8 153.4 3401.3 162.7 3384.3 196.8 L 3384.2 158.1 L 3384.2 158.1 Z M 3726.8 322.4 C 3655.5 322.4 3644.7 316.2 3644.7 280.5 L 3840 280.5 C 3836.9 181.3 3836.9 158.1 3705.1 158.1 C 3593.5 158.1 3568.6 178.2 3568.6 266.6 C 3568.6 348.8 3601.2 368.9 3691.1 370.5 C 3791.9 370.5 3839.9 365.8 3839.9 299.2 L 3767 299.2 C 3764 314.7 3757.8 322.4 3726.8 322.4 Z M 3643.1 237.2 C 3646.2 215.5 3652.4 207.7 3702 207.7 C 3756.3 207.7 3764 210.8 3767.1 237.2 L 3643.1 237.2 Z M 871.3 244.9 L 945.7 244.9 C 939.5 175.1 919.3 158.1 815.5 158.1 C 697.7 158.1 671.3 176.7 671.3 263.5 C 671.3 350.3 696.1 370.5 806.2 370.5 C 922.5 370.5 945.7 355 945.7 282.1 L 871.3 282.1 C 871.3 302.3 863.6 311.6 806.2 311.6 C 756.6 311.6 745.7 299.2 745.7 258.9 C 745.7 220.1 756.5 220.1 815.5 220.1 C 858.9 220.1 866.6 224.8 871.3 244.9 Z M 2599.8 257.3 C 2599.8 173.6 2575 156.6 2455.6 156.6 C 2326.9 156.6 2311.5 178.3 2311.5 265.1 C 2311.5 351.9 2333.2 370.5 2455.6 370.5 C 2585.8 370.5 2599.8 348.8 2599.8 257.3 Z M 2387.4 262 C 2387.4 220.1 2396.7 215.5 2451 215.5 C 2511.5 215.5 2522.3 217 2522.3 262 C 2522.3 303.9 2514.5 311.6 2457.2 311.6 C 2395.1 311.6 2387.4 305.4 2387.4 262 L 2387.4 262 Z M 3267.9 257.3 C 3267.9 173.6 3244.6 156.6 3125.3 156.6 C 2998.2 156.6 2982.7 176.7 2982.7 263.6 C 2982.7 352 3004.4 370.6 3125.3 370.6 C 3255.5 370.5 3267.9 348.8 3267.9 257.3 Z M 3057.1 262 C 3057.1 220.1 3066.4 215.5 3120.6 215.5 C 3181.1 215.5 3191.9 217 3191.9 262 C 3191.9 303.9 3184.2 311.6 3126.8 311.6 C 3064.9 311.6 3057.1 305.4 3057.1 262 Z M 1275.9 257.3 C 1275.9 173.6 1252.6 156.6 1133.3 156.6 C 1004.6 156.6 989.1 176.7 989.1 263.6 C 989.1 352 1010.8 370.6 1133.3 370.6 C 1263.5 370.5 1275.9 348.8 1275.9 257.3 Z M 1066.6 262 C 1066.6 220.1 1075.9 215.5 1128.6 215.5 C 1189.1 215.5 1199.9 217 1199.9 262 C 1199.9 303.9 1192.1 311.6 1134.8 311.6 C 1074.3 311.6 1066.6 305.4 1066.6 262 Z M 2858.7 71.3 L 2858.7 190.7 C 2841.7 167.4 2826.2 155.1 2764.2 155.1 C 2665 155.1 2646.4 181.5 2646.4 262.1 C 2646.4 344.3 2672.8 367.5 2768.9 367.5 C 2829.4 367.5 2848 352 2861.9 325.7 L 2861.9 362.9 L 2936.3 362.9 L 2936.3 71.3 L 2858.7 71.3 L 2858.7 71.3 Z M 2804.4 213.9 C 2846.2 213.9 2860.2 220.1 2860.2 252.6 C 2860.2 302.2 2857.1 306.9 2798.2 306.9 C 2739.3 306.9 2723.8 305.3 2723.8 263.5 C 2723.8 215.5 2742.4 213.9 2804.4 213.9 Z M 1393.7 158.1 L 1324 158.1 L 1324 362.7 L 1398.4 362.7 L 1398.4 257.3 C 1398.4 226.3 1413.9 215.5 1455.8 215.5 C 1494.6 215.5 1505.4 229.4 1505.4 268.2 L 1505.4 362.7 L 1581.4 362.7 L 1581.4 254.2 C 1581.4 224.7 1604.6 215.5 1640.3 215.5 C 1674.4 215.5 1689.9 224.8 1689.9 254.2 L 1689.9 362.7 L 1764.3 362.7 L 1764.3 241.8 C 1764.3 181.4 1727.1 153.4 1658.9 153.4 C 1600 153.4 1578.3 175.1 1570.5 198.4 C 1555 172 1533.3 153.4 1474.4 153.4 C 1418.6 153.4 1403.1 172 1393.8 206.1 L 1393.7 158.1 L 1393.7 158.1 Z M 1894.4 158.1 L 1824.6 158.1 L 1824.6 362.7 L 1899 362.7 L 1899 257.3 C 1899 226.3 1917.6 215.5 1954.8 215.5 C 1993.6 215.5 2004.4 227.9 2004.4 268.2 L 2004.4 362.7 L 2080.4 362.7 L 2080.4 254.2 C 2080.4 224.7 2102.1 215.5 2137.8 215.5 C 2171.9 215.5 2188.9 226.3 2188.9 254.2 L 2188.9 362.7 L 2263.3 362.7 L 2263.3 241.8 C 2263.3 181.4 2226.1 153.4 2157.9 153.4 C 2099 153.4 2078.8 173.5 2069.5 198.4 C 2054 172 2032.3 153.4 1973.4 153.4 C 1919.2 153.4 1905.2 172 1894.4 206.1 L 1894.4 158.1 L 1894.4 158.1 Z" style="fill: rgb(255, 255, 255);"/>
  <path class="st5" d="M 334.6 388.9 C 314.2 400.3 290.8 406.9 265.8 406.9 C 188.1 406.9 124.8 343.7 124.8 265.9 C 124.8 188.1 188 124.9 265.8 124.9 C 290.8 124.9 314.2 131.4 334.6 142.9 L 334.6 9 C 312.7 3.1 289.6 0 265.8 0 C 119 0 0 119 0 265.9 C 0 412.8 119 531.8 265.9 531.8 C 289.7 531.8 312.7 528.6 334.7 522.8 L 334.7 388.9 Z" style="fill: rgb(255, 255, 255);"/>
  <rect x="334.6" y="149.8" class="st5" width="111.5" height="106.4" style="fill: rgb(255, 255, 255);"/>
  <polygon class="st5" points="566.4 149.8 460 256.2 411 256.2 411 149.8" style="fill: rgb(255, 255, 255);"/>
  <rect x="334.6" y="275.6" class="st5" width="111.5" height="106.4" style="fill: rgb(255, 255, 255);"/>
  <polygon class="st5" points="566.4 381.9 460 275.6 411 275.6 411 381.9" style="fill: rgb(255, 255, 255);"/>
</svg>
